img/icons/user/infoPanel/mapPin.svg

<svg width="24" height="24" viewBox="0 0 24 24" fill="none" xmlns="http://www.w3.org/2000/svg">
<path d="M7.33301 10.6154C7.33301 13.8499 10.1627 16.5248 11.4151 17.5503L11.4156 17.5507C11.5952 17.6978 11.685 17.7713 11.8189 17.809C11.923 17.8383 12.0762 17.8383 12.1803 17.809C12.3143 17.7713 12.4044 17.6976 12.5843 17.5503C13.8368 16.5248 16.6663 13.8499 16.6663 10.6154C16.6663 9.3913 16.1747 8.21737 15.2995 7.35181C14.4243 6.48626 13.2374 6 11.9997 6C10.762 6 9.57501 6.48625 8.69984 7.35181C7.82467 8.21736 7.33301 9.39132 7.33301 10.6154Z" stroke="#8C8D92" stroke-width="2" stroke-linecap="round" stroke-linejoin="round"/>
</svg>

<svg width="24" height="24" fill="none" xmlns="http://www.w3.org/2000/svg"><path d="M7.333 10.615c0 3.235 2.83 5.91 4.082 6.935h0c.18.148.27.221.404.259.104.03.257.03.361 0 .134-.038.224-.111.404-.259 1.253-1.025 4.082-3.7 4.082-6.935A4.59 4.59 0 0 0 15.3 7.352 4.693 4.693 0 0 0 12 6a4.693 4.693 0 0 0-3.3 1.352 4.59 4.59 0 0 0-1.366 3.263Z" stroke="#8C8D92" stroke-width="2" stroke-linecap="round" stroke-linejoin="round"/></svg>
